!! 00000] TT[00
!! NN
!!!OTL: Xiaoxiao shuiche chang you chang
!!!ARE: Asia, China,ÿAnhui, Anqing
!! Ethnic Group: Han
!! III, 540, 1)
!!!SCT: C0340
!!!YEM: Copyright 1995, estate of Helmut Schaffrath.
**kern
*ICvox
*Ivox
!! Mixed meters:  2/4; 1/4
*MZ
*k[b-e-]
*B-:
{8ccc
8ccc
8ccc
8ccc
=1
8gg
16gg
16bb-
8ccc
16ccc
16ccc
=2
4ccc
4gg
=3
4ccc
4gg}
=4
{8fff
8ccc
8ccc
16ccc
16ccc
=5
4gg}
=6
*M2/4
{8.fff
16ddd
4ccc
=7
8gg
16gg
16bb-
8ccc
16ccc
16ccc
=8
16gg
16gg
8gg
4ff}
=9
{8.fff
16ddd
4ccc
=10
8gg
16gg
16bb-
8ccc
16ccc
16ccc
=11
16gg
16gg
8gg
4ff}
==
!!!AGN: Haozi, Cheshui haozi. Nongtian cheshui shi chang
!!  Vereinzelt Verzierungen.
!!!ONB: ESAC (Essen Associative Code) Database: CHINA
!!!AMT: irregular
!!!AIN: vox
!!!EED: Helmut Schaffrath
!!!EEV: 1.0
*-
